data/styles/clear/style-clear/symbols/laundry-m.svg

<svg height="24" viewBox="0 0 24 24" width="24"><g fill="none" fill-rule="evenodd"><circle cx="12" cy="12" fill="#fff" opacity=".6" r="12"/><circle cx="12" cy="12" fill="#717065" r="11"/><path d="m15.2 6h-6.4c-.44 0-.8.41538462-.8.92307692v10.15384618c0 .5076923.36.9230769.8.9230769h6.4c.44 0 .8-.4153846.8-.9230769v-10.15384618c0-.5076923-.36-.92307692-.8-.92307692zm-6.31111111 1.84615385h2.66666671v.92307692h-2.66666671zm3.11111111 8.30769235c-1.4708333 0-2.66666667-1.2426924-2.66666667-2.7692308 0-1.5265385 1.19666667-2.7692308 2.66666667-2.7692308s2.6666667 1.2426923 2.6666667 2.7692308c0 1.5265384-1.1958334 2.7692308-2.6666667 2.7692308zm0-.923077c.7348148 0 1.3333333-.4138461 1.3333333-.9230769h-2.6666666c0 .5092308.5985185.9230769 1.3333333.9230769z" fill="#fff"/></g></svg>

<svg width="24" height="24" viewBox="0 0 24 24">
  <g fill="none" fill-rule="evenodd">
    <circle cx="12" cy="12" r="12" fill="#FFF" opacity=".6"/>
    <circle cx="12" cy="12" r="11" fill="#717065"/>
    <path fill="#FFF" d="M15.2,6 L8.8,6 C8.36,6 8,6.41538462 8,6.92307692 L8,17.0769231 C8,17.5846154 8.36,18 8.8,18 L15.2,18 C15.64,18 16,17.5846154 16,17.0769231 L16,6.92307692 C16,6.41538462 15.64,6 15.2,6 L15.2,6 Z M8.88888889,7.84615385 L11.5555556,7.84615385 L11.5555556,8.76923077 L8.88888889,8.76923077 L8.88888889,7.84615385 L8.88888889,7.84615385 Z M12,16.1538462 C10.5291667,16.1538462 9.33333333,14.9111538 9.33333333,13.3846154 C9.33333333,11.8580769 10.53,10.6153846 12,10.6153846 C13.47,10.6153846 14.6666667,11.8580769 14.6666667,13.3846154 C14.6666667,14.9111538 13.4708333,16.1538462 12,16.1538462 L12,16.1538462 Z M12,15.2307692 C12.7348148,15.2307692 13.3333333,14.8169231 13.3333333,14.3076923 L10.6666667,14.3076923 C10.6666667,14.8169231 11.2651852,15.2307692 12,15.2307692 L12,15.2307692 Z"/>
  </g>
</svg>
